X:18961
T:Xiraldilla (CT 057)
R:Xiraldilla
C:Tradicional
S:Música Tradicional Asturiana, (C) Tello & Tito. Asturies, 2001.
S:http://pagina.de/MusTradAst <telloytito@asturies.org>
N:Canción del corro de niñas, transcrita en Tinéu.
N:Continúa cantándose las horas hasta doce y decrece luego hasta una.
O:Tinéu
A:Asturies
Z:Cancioneru de Torner 057
M:6/8
L:1/8
Q:3/8=88
W:Caracol, que ya da la una.
W:Ni una, ni media ni nada.
W:Caracol, como se bañaba,
W:caracol, a orillas del agua.
K:C
B/c/
|ddd e2 d|c B2-BzB|dBc ded|c B2-BzG/A/|
BAB c2 B|A G2-G zG/A/|BAB c2 B|A G2-G z||


